X: 5248
T: Broken Pledge, The
R: reel
M: 4/4
K: Edorian
|e|:edBA BE E2|dBAG FDDF|EFGA Beed|((3B=cB) Ac Begf|edBA B2 ec|
((3dcB) AG FDDF|EFGA Beed|((3B=cB) AF FEEe:|edBA B2 ef|gfge fdBc|
dBAF ABde|((3fga) eg fdBd|edBA B2 ef|gfge fdBA|~GFGA Beed|((3B=cB) AF FEEe:|

